svg/file_table_box_outline.svg

<svg xmlns="http://www.w3.org/2000/svg" viewBox="0 0 24 24"><path d="M19 3H5c-1.11 0-2 .89-2 2v14c0 1.11.89 2 2 2h14c1.11 0 2-.89 2-2V5c0-1.11-.89-2-2-2m0 16H5V5h14zM9 18H6v-2h3zm4 0h-3v-2h3zm-4-3H6v-2h3zm4 0h-3v-2h3zm-4-3H6v-2h3zm4 0h-3v-2h3z"/></svg>

<?xml version="1.0" encoding="UTF-8"?><!DOCTYPE svg PUBLIC "-//W3C//DTD SVG 1.1//EN" "http://www.w3.org/Graphics/SVG/1.1/DTD/svg11.dtd"><svg xmlns="http://www.w3.org/2000/svg" xmlns:xlink="http://www.w3.org/1999/xlink" version="1.1" id="mdi-file-table-box-outline" width="24" height="24" viewBox="0 0 24 24"><path d="M19 3H5C3.89 3 3 3.89 3 5V19C3 20.11 3.89 21 5 21H19C20.11 21 21 20.11 21 19V5C21 3.89 20.11 3 19 3M19 19H5V5H19V19M9 18H6V16H9V18M13 18H10V16H13V18M9 15H6V13H9V15M13 15H10V13H13V15M9 12H6V10H9V12M13 12H10V10H13V12Z" /></svg>
